X:1
T:Title
%%score { ( 1 4 ) | ( 2 3 ) }
L:1/8
Q:1/4=100
M:4/4
K:Bb
V:1 treble nm="Grand Piano"
V:4 treble 
V:2 bass 
V:3 bass 
V:1
 [DB]2 F2 DB,DF | B2 dc [B,DB]4 | [Ec]2 G2 ECEG | c2 ed [CEc]4 | c2 c2 c2 AB | z2 [Fd]2 z4 | %6
w: Adam~Geibel * * * * *||||||
 ABcd cBA[DGB] |[M:7/8] [CFA]2 [B,=EG]2 [A,F]3 |[M:1/4] z2 |[M:6/8] e2 e e2 e | %10
w: ||||
 [EGe]3 [CE]2- [CEF] | d2 d d2 d | [DFd]3 D2 D | c2 c c2 c | [DAc]3 D2 D | B2 B B2 B | %16
w: ||||||
 [B,DB]3 [B,DB]2 [B,DB] | [Gc]3 [Gc]3 | [G_d]3 [Gd]3 | [^Fd]3 DFA | d3 d2 d | %21
w: |||||
 [Ge]2 [Ge] [Gd]2 [Gc] | [Bf]3 [EFA]3 | [DFB]6- | [DFB]3 z3 | [EB]6 | [DB]6 |] %27
w: ||||||
V:2
 [B,,F,]2 F,2 D,B,,D,F, | B,2 FE B,,4 | [C,G,]2 G,2 E,C,E,G, | C2 GF[K:bass] C,4 | %4
 [F,A,F]2[K:treble] [G,B,=E]2 [A,CF]2 z G, | [F,A,F]2[K:bass] .[B,,B,]2 [F,A,F]4 | %6
 [CF]2[K:treble] F2 [CF]4[K:bass] |[M:7/8] C,2 C,2 F,3 |[M:1/4][K:treble] F>F | %9
[M:6/8][K:bass] [F,,F,]3 [^F,,^F,]3 | [G,,G,]3 [A,,A,]3 | [B,,B,]3 [F,,F,]3 | [D,,D,]3 [B,,,B,,]3 | %13
 [D,,D,]3 [A,,A,]3 | [^F,,^F,]3 [D,,D,]3 | z3 [B,D]3 | G,,3 G,2 G, | [E,G,]3 [E,G,]3 | %18
 [E,A,]3 [E,A,]3 | [D,A,]3 D,^F,A, | D3 [G,B,G]2 [G,B,G] | [C,C]2 [C,C] [D,=B,]2 [E,C] | %22
 [F,D]3 F,3 | B,,6- | B,,3 z3 | [E,G,]6 | [B,,F,]6 |] %27
V:3
 x8 | z2 [F,A,]2 z4 | x8 | z2 [G,=B,]2[K:bass] z4 | z4[K:treble] z2 [F,F]2 | x2[K:bass] x6 | %6
 F,G,[K:treble][A,C]B, A,[K:bass]G,F,B,, |[M:7/8] x7 |[M:1/4][K:treble] x2 |[M:6/8][K:bass] x6 | %10
 x6 | x6 | x6 | x6 | x6 | [G,,G,]3 D,2 B,, | x6 | x6 | x6 | x6 | x6 | x6 | x6 | x6 | x6 | x6 | %26
 x6 |] %27
V:4
 x8 | x8 | x8 | x8 | x8 | c2 z D, c4 | x8 |[M:7/8] x7 |[M:1/4] x2 |[M:6/8] [EA]3 [E_A]3 | z3 .F3 | %11
 [DF]3 [DF]3 | x6 | [D^F]3 [DF]3 | x6 | [B,D]3 z3 | x6 | x6 | x6 | x6 | x6 | x6 | x6 | x6 | x6 | %25
 x6 | x6 |] %27

